X:130
T:Eileen McMahon
B:Terry "Cuz" Teahan "Sliabh Luachra on Parade" 1980
Z:Patrick Cavanagh
M:3/4
L:1/8
R:Waltz
K:D
A2 | A4E>F | G2A3G | F2D4 | D4FA | d4cd | e2d2c2 | B6 | B4B>c | 
d4c>d | e2d2B2 | A2F4 | F4A2 | A4E>F | G2F2E2 | D6 | D4 || 

